;FLAVOR:Marlin
;TIME:14244
;Filament used: 11.6172m
;Layer height: 0.2
;MINX:38.7
;MINY:73.584
;MINZ:0.2
;MAXX:181.3
;MAXY:146.419
;MAXZ:92
;Generated with Cura_SteamEngine 4.8.0
M140 S50
M105
M190 S50
M104 S210
M105
M109 S210
M82 ;absolute extrusion mode
; Ender 3 Custom Start G-code
G92 E0 ; Reset Extruder
G28 ; Home all axes
G1 Z2.0 F3000 ; Move Z Axis up little to prevent scratching of Heat Bed
G1 X0.1 Y20 Z0.3 F5000.0 ; Move to start position
G1 X0.1 Y200.0 Z0.3 F1500.0 E15 ; Draw the first line
G1 X0.4 Y200.0 Z0.3 F5000.0 ; Move to side a little
G1 X0.4 Y20 Z0.3 F1500.0 E30 ; Draw the second line
G92 E0 ; Reset Extruder
G1 Z2.0 F3000 ; Move Z Axis up little to prevent scratching of Heat Bed
G1 X5 Y20 Z0.3 F5000.0 ; Move over to prevent blob squish
G92 E0
G92 E0
G1 F1500 E-6.5
;LAYER_COUNT:460
;LAYER:0
M107
M204 S500
G0 F6000 X41.65 Y74.443 Z0.2
M204 S1000
;TYPE:SKIRT
G1 F1500 E0
G1 F1200 X42.262 Y74.144 E0.02265
G1 X43.18 Y73.847 E0.05475
G1 X43.488 Y73.775 E0.06527
G1 X44.159 Y73.659 E0.08791
G1 X44.839 Y73.623 E0.11056
G1 X45.518 Y73.667 E0.13319
G1 X46.188 Y73.79 E0.15585
G1 X46.838 Y73.99 E0.17847
G1 X47.461 Y74.265 E0.20112
G1 X48.047 Y74.612 E0.22377
G1 X48.589 Y75.025 E0.24644
G1 X49.078 Y75.498 E0.26906
G1 X49.509 Y76.026 E0.29173
G1 X49.996 Y76.83 E0.323
G1 X51.309 Y79.457 E0.42068
G1 X51.393 Y79.602 E0.42625
G1 X51.562 Y79.915 E0.43808
G1 X53.192 Y83.176 E0.55934
G1 X53.294 Y83.355 E0.56619
G1 X53.442 Y83.633 E0.57666
G1 X55.075 Y86.9 E0.69814
G1 X55.169 Y87.065 E0.70446
G1 X55.317 Y87.342 E0.71491
G1 X56.951 Y90.611 E0.83646
G1 X57.126 Y90.92 E0.84827
G1 X57.271 Y91.192 E0.85852
G1 X58.919 Y94.49 E0.98115
G1 X58.997 Y94.628 E0.98642
G1 X59.144 Y94.904 E0.99682
G1 X59.924 Y96.466 E1.05489
G1 X60.074 Y96.747 E1.06548
G1 X60.868 Y98.336 E1.12456
G1 X61.019 Y98.617 E1.13517
G1 X61.796 Y100.175 E1.19308
G1 X61.948 Y100.46 E1.20382
G1 X62.74 Y102.045 E1.26276
G1 X62.886 Y102.318 E1.27305
G1 X63.077 Y102.7 E1.28726
G1 X87.409 Y102.7 E2.09654
G1 X88.039 Y100.868 E2.16098
G1 X88.423 Y99.992 E2.19279
G1 X89.832 Y97.391 E2.29118
G1 X90.356 Y96.59 E2.32301
G1 X92.183 Y94.244 E2.42191
G1 X92.509 Y93.861 E2.43864
G1 X92.845 Y93.526 E2.45442
G1 X95.02 Y91.526 E2.5527
G1 X95.775 Y90.939 E2.58451
G1 X98.274 Y89.307 E2.68378
G1 X99.118 Y88.85 E2.7157
G1 X101.837 Y87.659 E2.81443
G1 X102.743 Y87.349 E2.84628
G1 X105.628 Y86.62 E2.94525
G1 X106.574 Y86.462 E2.97715
G1 X109.533 Y86.219 E3.0759
G1 X110.485 Y86.22 E3.10756
G1 X113.428 Y86.463 E3.20578
G1 X114.372 Y86.62 E3.23761
G1 X117.257 Y87.349 E3.33658
G1 X118.162 Y87.659 E3.3684
G1 X120.882 Y88.85 E3.46716
G1 X121.726 Y89.306 E3.49906
G1 X124.214 Y90.93 E3.59788
G1 X124.969 Y91.516 E3.62967
G1 X127.153 Y93.523 E3.72832
G1 X127.491 Y93.861 E3.74422
G1 X127.817 Y94.244 E3.76095
G1 X129.644 Y96.59 E3.85985
G1 X130.168 Y97.391 E3.89169
G1 X131.577 Y99.992 E3.99007
G1 X131.961 Y100.867 E4.02186
G1 X132.592 Y102.7 E4.08633
G1 X156.932 Y102.7 E4.89588
G1 X157.191 Y102.182 E4.91515
G1 X157.338 Y101.906 E4.92555
G1 X158.123 Y100.335 E4.98396
G1 X158.265 Y100.068 E4.99402
G1 X159.063 Y98.474 E5.05331
G1 X159.201 Y98.214 E5.0631
G1 X160.005 Y96.609 E5.1228
G1 X160.137 Y96.362 E5.13212
G1 X160.936 Y94.763 E5.19157
G1 X161.073 Y94.505 E5.20129
G1 X161.165 Y94.343 E5.20748
G1 X164.527 Y87.615 E5.45764
G1 X164.676 Y87.336 E5.46816
G1 X164.758 Y87.193 E5.47364
G1 X166.399 Y83.91 E5.59572
G1 X166.549 Y83.63 E5.60628
G1 X166.638 Y83.474 E5.61225
G1 X168.275 Y80.199 E5.73403
G1 X168.439 Y79.894 E5.74555
G1 X168.518 Y79.758 E5.75078
G1 X170.004 Y76.784 E5.86136
G1 X170.344 Y76.194 E5.88401
G1 X170.75 Y75.647 E5.90666
G1 X171.218 Y75.153 E5.9293
G1 X171.74 Y74.716 E5.95194
G1 X172.31 Y74.344 E5.97458
G1 X172.92 Y74.041 E5.99723
G1 X173.561 Y73.811 E6.01988
G1 X174.225 Y73.658 E6.04254
G1 X174.901 Y73.584 E6.06516
G1 X175.582 Y73.59 E6.08781
G1 X176.512 Y73.729 E6.11909
G1 X176.82 Y73.801 E6.12961
G1 X177.473 Y73.995 E6.15227
G1 X178.099 Y74.264 E6.17493
G1 X178.688 Y74.604 E6.19755
G1 X179.234 Y75.011 E6.2202
G1 X179.729 Y75.479 E6.24286
G1 X180.165 Y76.002 E6.2655
G1 X180.536 Y76.572 E6.28812
G1 X180.839 Y77.183 E6.31081
G1 X181.068 Y77.824 E6.33345
G1 X181.22 Y78.488 E6.3561
G1 X181.3 Y79.449 E6.38818
G1 X181.3 Y140.547 E8.4203
G1 X181.26 Y141.227 E8.44296
G1 X181.141 Y141.897 E8.46559
G1 X180.944 Y142.549 E8.48825
G1 X180.672 Y143.173 E8.51089
G1 X180.328 Y143.761 E8.53354
G1 X179.918 Y144.305 E8.5562
G1 X179.447 Y144.796 E8.57883
G1 X178.922 Y145.23 E8.60149
G1 X178.35 Y145.599 E8.62413
G1 X177.738 Y145.898 E8.64678
G1 X176.82 Y146.195 E8.67887
G1 X176.512 Y146.267 E8.68939
G1 X175.841 Y146.383 E8.71204
G1 X175.161 Y146.419 E8.73469
G1 X174.482 Y146.375 E8.75732
G1 X173.812 Y146.252 E8.77998
G1 X173.162 Y146.052 E8.8026
G1 X172.539 Y145.777 E8.82525
G1 X171.953 Y145.43 E8.8479
G1 X171.411 Y145.017 E8.87056
G1 X170.922 Y144.544 E8.89319
G1 X170.491 Y144.016 E8.91586
G1 X170.003 Y143.211 E8.94717
G1 X168.531 Y140.263 E9.05676
G1 X168.501 Y140.214 E9.05867
G1 X168.288 Y139.826 E9.0734
G1 X164.923 Y133.092 E9.32378
G1 X164.881 Y133.021 E9.32652
G1 X164.685 Y132.662 E9.34012
G1 X163.037 Y129.363 E9.46278
G1 X162.92 Y129.163 E9.47048
G1 X162.739 Y128.829 E9.48312
G1 X161.923 Y127.198 E9.54378
G1 X161.805 Y126.978 E9.55208
G1 X160.99 Y125.346 E9.61275
G1 X160.869 Y125.123 E9.62119
G1 X160.057 Y123.497 E9.68164
G1 X159.928 Y123.26 E9.69062
G1 X159.123 Y121.648 E9.75055
G1 X158.992 Y121.406 E9.7597
G1 X158.175 Y119.772 E9.82046
G1 X158.058 Y119.553 E9.82872
G1 X157.242 Y117.919 E9.88947
G1 X157.119 Y117.694 E9.89799
G1 X156.922 Y117.3 E9.91265
G1 X134.737 Y117.3 E10.65052
G1 X134.737 Y129.383 E11.0524
G1 X134.697 Y130.063 E11.07506
G1 X134.578 Y130.733 E11.09769
G1 X134.381 Y131.385 E11.12035
G1 X134.109 Y132.009 E11.14299
G1 X133.765 Y132.597 E11.16564
G1 X133.355 Y133.141 E11.1883
G1 X133.038 Y133.484 E11.20384
G1 X132.921 Y133.601 E11.20934
G1 X132.412 Y134.054 E11.232
G1 X131.854 Y134.443 E11.25463
G1 X131.254 Y134.765 E11.27727
G1 X130.62 Y135.014 E11.29993
G1 X129.961 Y135.187 E11.32259
G1 X129.287 Y135.281 E11.34522
G1 X128.82 Y135.3 E11.36077
G1 X91.18 Y135.3 E12.61268
G1 X90.5 Y135.26 E12.63534
G1 X89.83 Y135.141 E12.65797
G1 X89.178 Y134.944 E12.68062
G1 X88.554 Y134.672 E12.70326
G1 X87.966 Y134.328 E12.72592
G1 X87.422 Y133.918 E12.74858
G1 X87.079 Y133.601 E12.76411
G1 X86.962 Y133.484 E12.76962
G1 X86.509 Y132.975 E12.79228
G1 X86.12 Y132.417 E12.8149
G1 X85.798 Y131.817 E12.83755
G1 X85.549 Y131.183 E12.86021
G1 X85.376 Y130.524 E12.88287
G1 X85.282 Y129.85 E12.9055
G1 X85.263 Y129.383 E12.92105
G1 X85.263 Y117.3 E13.32293
G1 X63.068 Y117.3 E14.06114
G1 X62.813 Y117.809 E14.08007
G1 X62.69 Y118.04 E14.08878
G1 X61.878 Y119.666 E14.14923
G1 X61.757 Y119.887 E14.15761
G1 X60.94 Y121.523 E14.21843
G1 X60.814 Y121.759 E14.22733
G1 X60.002 Y123.382 E14.28769
G1 X59.875 Y123.616 E14.29654
G1 X59.064 Y125.239 E14.35689
G1 X58.933 Y125.486 E14.36619
G1 X58.123 Y127.103 E14.42634
G1 X58.005 Y127.319 E14.43453
G1 X55.454 Y132.424 E14.62434
G1 X55.271 Y132.761 E14.63709
G1 X55.227 Y132.837 E14.64001
G1 X53.583 Y136.126 E14.76231
G1 X53.397 Y136.469 E14.77529
G1 X53.195 Y136.813 E14.78856
G1 X51.565 Y140.074 E14.90981
G1 X51.374 Y140.425 E14.9231
G1 X51.315 Y140.526 E14.92699
G1 X49.996 Y143.164 E15.02509
G1 X49.656 Y143.754 E15.04774
G1 X49.25 Y144.3 E15.07037
G1 X48.782 Y144.795 E15.09303
G1 X48.26 Y145.232 E15.11567
G1 X47.69 Y145.604 E15.13831
G1 X47.08 Y145.907 E15.16096
G1 X46.439 Y146.137 E15.18361
G1 X45.776 Y146.29 E15.20624
G1 X45.099 Y146.364 E15.22889
G1 X44.418 Y146.358 E15.25155
G1 X43.488 Y146.219 E15.28282
G1 X43.18 Y146.147 E15.29334
G1 X42.527 Y145.953 E15.316
G1 X41.901 Y145.684 E15.33866
G1 X41.312 Y145.344 E15.36128
G1 X40.766 Y144.937 E15.38393
G1 X40.271 Y144.469 E15.40659
G1 X39.835 Y143.946 E15.42923
G1 X39.464 Y143.376 E15.45185
G1 X39.161 Y142.765 E15.47454
G1 X38.932 Y142.124 E15.49718
G1 X38.78 Y141.46 E15.51983
G1 X38.7 Y140.499 E15.55191
G1 X38.7 Y79.495 E17.58091
G1 X38.74 Y78.815 E17.60356
G1 X38.859 Y78.145 E17.6262
G1 X39.056 Y77.493 E17.64885
G1 X39.328 Y76.869 E17.67149
G1 X39.672 Y76.281 E17.69415
G1 X40.082 Y75.737 E17.71681
G1 X40.553 Y75.246 E17.73944
G1 X41.078 Y74.812 E17.76209
G1 X41.65 Y74.443 E17.78473
M204 S500
G0 F6000 X42.029 Y74.693
M204 S1000
G1 F1200 X42.631 Y74.429 E17.80659
G1 X43.271 Y74.237 E17.82882
G1 X43.579 Y74.165 E17.83934
G1 X44.226 Y74.054 E17.86117
G1 X44.883 Y74.024 E17.88305
G1 X45.538 Y74.073 E17.90489
G1 X46.182 Y74.201 E17.92673
G1 X46.806 Y74.406 E17.94858
G1 X47.401 Y74.686 E17.97045
G1 X47.957 Y75.036 E17.9923
G1 X48.466 Y75.451 E18.01414
G1 X48.921 Y75.924 E18.03597
G1 X49.316 Y76.45 E18.05785
G1 X49.638 Y77.009 E18.07931
G1 X50.952 Y79.638 E18.17706
G1 X51.047 Y79.802 E18.18337
G1 X51.204 Y80.094 E18.19439
G1 X52.84 Y83.366 E18.31607
G1 X52.946 Y83.553 E18.32321
G1 X53.084 Y83.812 E18.33298
G1 X54.723 Y87.091 E18.4549
G1 X54.821 Y87.263 E18.46149
G1 X54.959 Y87.521 E18.47122
G1 X56.598 Y90.802 E18.5932
G1 X56.778 Y91.118 E18.6053
G1 X56.913 Y91.371 E18.61484
G1 X58.559 Y94.666 E18.73734
G1 X58.65 Y94.826 E18.74346
G1 X58.787 Y95.082 E18.75312
G1 X59.577 Y96.665 E18.81196
G1 X59.716 Y96.926 E18.8218
G1 X60.513 Y98.52 E18.88107
G1 X60.661 Y98.796 E18.89149
G1 X61.449 Y100.374 E18.95015
G1 X61.59 Y100.639 E18.96014
G1 X62.392 Y102.242 E19.01975
G1 X62.528 Y102.497 E19.02937
G1 X62.829 Y103.1 E19.05178
G1 X87.694 Y103.1 E19.8788
G1 X88.417 Y100.998 E19.95273
G1 X88.775 Y100.183 E19.98233
G1 X90.184 Y97.582 E20.08072
G1 X90.672 Y96.836 E20.11037
G1 X92.499 Y94.49 E20.20927
G1 X92.803 Y94.132 E20.22489
G1 X93.116 Y93.82 E20.23959
G1 X95.291 Y91.82 E20.33787
G1 X95.993 Y91.274 E20.36745
G1 X98.492 Y89.642 E20.46672
G1 X99.278 Y89.217 E20.49644
G1 X101.997 Y88.026 E20.59517
G1 X102.841 Y87.737 E20.62484
G1 X105.726 Y87.008 E20.72381
G1 X106.607 Y86.861 E20.75352
G1 X109.566 Y86.618 E20.85226
G1 X110.452 Y86.618 E20.88173
G1 X113.395 Y86.861 E20.97995
G1 X114.274 Y87.008 E21.00959
G1 X117.159 Y87.737 E21.10856
G1 X118.002 Y88.025 E21.13819
G1 X120.722 Y89.216 E21.23695
G1 X121.508 Y89.641 E21.26667
G1 X123.996 Y91.265 E21.36549
G1 X124.698 Y91.811 E21.39507
G1 X126.882 Y93.818 E21.49373
G1 X127.198 Y94.134 E21.50859
G1 X127.501 Y94.49 E21.52414
G1 X129.328 Y96.836 E21.62304
G1 X129.816 Y97.582 E21.65269
G1 X131.225 Y100.183 E21.75107
G1 X131.583 Y100.997 E21.78065
G1 X132.307 Y103.1 E21.85463
G1 X157.18 Y103.1 E22.6819
G1 X157.549 Y102.361 E22.70938
G1 X157.69 Y102.097 E22.71933
G1 X158.481 Y100.514 E22.77819
G1 X158.614 Y100.263 E22.78764
G1 X159.421 Y98.653 E22.84754
G1 X159.55 Y98.409 E22.85672
G1 X160.362 Y96.788 E22.91702
G1 X160.504 Y96.523 E22.92702
G1 X161.294 Y94.942 E22.9858
G1 X161.421 Y94.702 E22.99483
G1 X161.521 Y94.524 E23.00162
G1 X164.885 Y87.794 E23.25187
G1 X165.023 Y87.534 E23.26166
G1 X165.117 Y87.37 E23.26795
G1 X166.757 Y84.089 E23.38995
G1 X166.897 Y83.828 E23.3998
G1 X166.99 Y83.665 E23.40604
G1 X168.633 Y80.378 E23.52826
G1 X168.786 Y80.093 E23.53902
G1 X168.872 Y79.944 E23.54474
G1 X170.362 Y76.963 E23.65559
G1 X170.691 Y76.394 E23.67745
G1 X171.086 Y75.869 E23.6993
G1 X171.543 Y75.397 E23.72115
G1 X172.053 Y74.983 E23.743
G1 X172.61 Y74.634 E23.76486
G1 X173.205 Y74.356 E23.7867
G1 X173.829 Y74.152 E23.80854
G1 X174.474 Y74.025 E23.8304
G1 X175.129 Y73.977 E23.85225
G1 X175.785 Y74.01 E23.87409
G1 X176.421 Y74.119 E23.89556
G1 X176.729 Y74.191 E23.90608
G1 X177.359 Y74.379 E23.92794
G1 X177.961 Y74.642 E23.94979
G1 X178.526 Y74.977 E23.97164
G1 X179.047 Y75.377 E23.99349
G1 X179.515 Y75.838 E24.01534
G1 X179.924 Y76.352 E24.03718
G1 X180.267 Y76.912 E24.05903
G1 X180.54 Y77.51 E24.08089
G1 X180.738 Y78.136 E24.10273
G1 X180.859 Y78.782 E24.12459
G1 X180.9 Y79.449 E24.14681
G1 X180.9 Y140.547 E26.17894
G1 X180.86 Y141.203 E26.2008
G1 X180.741 Y141.849 E26.22265
G1 X180.544 Y142.476 E26.24451
G1 X180.272 Y143.074 E26.26636
G1 X179.93 Y143.635 E26.28821
G1 X179.522 Y144.15 E26.31006
G1 X179.055 Y144.612 E26.33191
G1 X178.535 Y145.013 E26.35375
G1 X177.971 Y145.349 E26.37559
G1 X177.369 Y145.613 E26.39745
G1 X176.729 Y145.805 E26.41967
G1 X176.421 Y145.877 E26.4302
G1 X175.774 Y145.988 E26.45203
G1 X175.117 Y146.018 E26.4739
G1 X174.462 Y145.969 E26.49575
G1 X173.818 Y145.841 E26.51759
G1 X173.194 Y145.636 E26.53943
G1 X172.599 Y145.356 E26.56131
G1 X172.043 Y145.006 E26.58316
G1 X171.534 Y144.591 E26.605
G1 X171.079 Y144.118 E26.62683
G1 X170.684 Y143.592 E26.64871
G1 X170.361 Y143.032 E26.67021
G1 X168.886 Y140.079 E26.78
G1 X168.844 Y140.009 E26.78271
G1 X168.646 Y139.647 E26.79644
G1 X165.28 Y132.911 E27.04689
G1 X165.225 Y132.818 E27.05048
G1 X165.043 Y132.483 E27.06317
G1 X163.392 Y129.179 E27.18601
G1 X163.265 Y128.961 E27.1944
G1 X163.097 Y128.65 E27.20616
G1 X162.288 Y127.032 E27.26633
G1 X162.163 Y126.8 E27.27509
G1 X161.351 Y125.174 E27.33554
G1 X161.226 Y124.945 E27.34422
G1 X160.409 Y123.309 E27.40504
G1 X160.285 Y123.082 E27.41364
G1 X159.467 Y121.443 E27.47457
G1 X159.35 Y121.227 E27.48274
G1 X158.535 Y119.597 E27.54335
G1 X158.415 Y119.375 E27.55175
G1 X157.59 Y117.722 E27.61319
G1 X157.477 Y117.515 E27.62104
G1 X157.17 Y116.9 E27.6439
G1 X134.337 Y116.9 E28.40333
G1 X134.337 Y129.383 E28.81851
G1 X134.297 Y130.039 E28.84037
G1 X134.178 Y130.685 E28.86222
G1 X133.981 Y131.312 E28.88408
G1 X133.709 Y131.91 E28.90593
G1 X133.367 Y132.471 E28.92778
G1 X132.755 Y133.201 E28.95947
G1 X132.638 Y133.318 E28.96497
G1 X132.146 Y133.754 E28.98683
G1 X131.605 Y134.126 E29.00867
G1 X131.023 Y134.43 E29.03051
G1 X130.408 Y134.661 E29.05236
G1 X129.769 Y134.816 E29.07423
G1 X128.82 Y134.9 E29.10592
G1 X91.18 Y134.9 E30.35783
G1 X90.524 Y134.86 E30.37969
G1 X89.878 Y134.741 E30.40154
G1 X89.251 Y134.544 E30.42339
G1 X88.653 Y134.272 E30.44525
G1 X88.092 Y133.93 E30.4671
G1 X87.362 Y133.318 E30.49878
G1 X87.245 Y133.201 E30.50429
G1 X86.809 Y132.709 E30.52615
G1 X86.437 Y132.168 E30.54799
G1 X86.133 Y131.586 E30.56983
G1 X85.902 Y130.971 E30.59168
G1 X85.747 Y130.332 E30.61355
G1 X85.663 Y129.383 E30.64523
G1 X85.663 Y116.9 E31.06042
G1 X62.82 Y116.9 E31.82018
G1 X62.455 Y117.63 E31.84733
G1 X62.333 Y117.861 E31.85602
G1 X61.52 Y119.487 E31.91648
G1 X61.403 Y119.702 E31.92462
G1 X60.582 Y121.345 E31.98571
G1 X60.452 Y121.588 E31.99488
G1 X59.644 Y123.203 E32.05494
G1 X59.503 Y123.465 E32.06483
G1 X58.706 Y125.06 E32.12414
G1 X58.586 Y125.286 E32.13265
G1 X57.766 Y126.924 E32.19358
G1 X57.641 Y127.152 E32.20222
G1 X55.096 Y132.245 E32.39159
G1 X54.926 Y132.559 E32.40347
G1 X54.871 Y132.652 E32.40706
G1 X53.225 Y135.947 E32.52956
G1 X53.052 Y136.267 E32.54166
G1 X52.84 Y136.628 E32.55559
G1 X51.207 Y139.895 E32.67707
G1 X51.03 Y140.222 E32.68943
G1 X50.957 Y140.345 E32.69419
G1 X49.638 Y142.985 E32.79235
G1 X49.309 Y143.554 E32.81421
G1 X48.914 Y144.078 E32.83603
G1 X48.457 Y144.551 E32.85791
G1 X47.947 Y144.965 E32.87976
G1 X47.39 Y145.314 E32.90162
G1 X46.795 Y145.592 E32.92346
G1 X46.171 Y145.796 E32.9453
G1 X45.526 Y145.923 E32.96716
G1 X44.871 Y145.971 E32.98901
G1 X44.215 Y145.938 E33.01085
G1 X43.579 Y145.829 E33.03231
G1 X43.271 Y145.757 E33.04283
G1 X42.641 Y145.569 E33.0647
G1 X42.039 Y145.306 E33.08655
G1 X41.474 Y144.971 E33.1084
G1 X40.953 Y144.571 E33.13024
G1 X40.485 Y144.11 E33.15209
G1 X40.076 Y143.596 E33.17394
G1 X39.733 Y143.036 E33.19578
G1 X39.46 Y142.438 E33.21765
G1 X39.262 Y141.812 E33.23948
G1 X39.141 Y141.166 E33.26134
G1 X39.1 Y140.499 E33.28357
G1 X39.1 Y79.495 E35.31257
G1 X39.14 Y78.839 E35.33443
G1 X39.259 Y78.193 E35.35628
G1 X39.456 Y77.566 E35.37814
G1 X39.728 Y76.968 E35.39999
G1 X40.07 Y76.407 E35.42184
G1 X40.478 Y75.892 E35.44369
G1 X40.945 Y75.43 E35.46554
G1 X41.465 Y75.029 E35.48738
G1 X42.029 Y74.693 E35.50922
M204 S500
G0 F6000 X41.85 Y75.255
M204 S1000
G1 F1200 X42.406 Y74.955 E35.53023
G1 X42.995 Y74.727 E35.55124
G1 X43.362 Y74.626 E35.5639
G1 X43.67 Y74.554 E35.57442
G1 X44.293 Y74.45 E35.59543
G1 X44.925 Y74.424 E35.61647
G1 X45.555 Y74.479 E35.6375
G1 X46.173 Y74.613 E35.65853
G1 X46.769 Y74.823 E35.67955
