;FLAVOR:Marlin
;TIME:5021
;Filament used: 3.50582m
;Layer height: 0.2
;MINX:70.308
;MINY:79.867
;MINZ:0.2
;MAXX:149.692
;MAXY:164.467
;MAXZ:21.8
;Generated with Cura_SteamEngine 4.8.0
M140 S50
M105
M190 S50
M104 S210
M105
M109 S210
M82 ;absolute extrusion mode
; Ender 3 Custom Start G-code
G92 E0 ; Reset Extruder
G28 ; Home all axes
G1 Z2.0 F3000 ; Move Z Axis up little to prevent scratching of Heat Bed
G1 X0.1 Y20 Z0.3 F5000.0 ; Move to start position
G1 X0.1 Y200.0 Z0.3 F1500.0 E15 ; Draw the first line
G1 X0.4 Y200.0 Z0.3 F5000.0 ; Move to side a little
G1 X0.4 Y20 Z0.3 F1500.0 E30 ; Draw the second line
G92 E0 ; Reset Extruder
G1 Z2.0 F3000 ; Move Z Axis up little to prevent scratching of Heat Bed
G1 X5 Y20 Z0.3 F5000.0 ; Move over to prevent blob squish
G92 E0
G92 E0
G1 F1500 E-6.5
;LAYER_COUNT:111
;LAYER:0
M107
M204 S500
G0 F6000 X72.633 Y81.113 Z0.2
M204 S1000
;TYPE:SKIRT
G1 F1500 E0
G1 F1200 X73.191 Y80.724 E0.02262
G1 X73.791 Y80.402 E0.04527
G1 X74.425 Y80.153 E0.06793
G1 X75.084 Y79.98 E0.09059
G1 X75.758 Y79.886 E0.11322
G1 X76.225 Y79.867 E0.12877
G1 X92.008 Y79.867 E0.65371
G1 X92.688 Y79.907 E0.67637
G1 X93.358 Y80.026 E0.699
G1 X94.01 Y80.223 E0.72166
G1 X94.583 Y80.473 E0.74245
G1 X94.904 Y80.316 E0.75433
G1 X95.546 Y80.091 E0.77696
G1 X96.211 Y79.942 E0.79963
G1 X97.142 Y79.867 E0.83069
G1 X123.858 Y79.867 E1.71927
G1 X124.538 Y79.907 E1.74193
G1 X125.208 Y80.026 E1.76456
G1 X125.86 Y80.223 E1.78721
G1 X126.429 Y80.471 E1.80786
G1 X126.557 Y80.402 E1.81269
G1 X127.191 Y80.153 E1.83535
G1 X127.85 Y79.98 E1.85801
G1 X128.524 Y79.886 E1.88064
G1 X128.991 Y79.867 E1.89619
G1 X143.775 Y79.867 E2.38791
G1 X144.455 Y79.907 E2.41056
G1 X145.125 Y80.026 E2.4332
G1 X145.777 Y80.223 E2.45585
G1 X146.401 Y80.495 E2.47849
G1 X146.989 Y80.839 E2.50115
G1 X147.533 Y81.249 E2.52381
G1 X147.876 Y81.566 E2.53934
G1 X147.993 Y81.683 E2.54484
G1 X148.446 Y82.192 E2.56751
G1 X148.835 Y82.75 E2.59013
G1 X149.157 Y83.35 E2.61278
G1 X149.406 Y83.984 E2.63543
G1 X149.579 Y84.643 E2.65809
G1 X149.673 Y85.317 E2.68073
G1 X149.692 Y85.784 E2.69627
G1 X149.692 Y155.55 E5.0167
G1 X149.652 Y156.23 E5.03936
G1 X149.533 Y156.9 E5.06199
G1 X149.336 Y157.552 E5.08464
G1 X149.064 Y158.176 E5.10728
G1 X148.72 Y158.764 E5.12994
G1 X148.31 Y159.308 E5.1526
G1 X147.993 Y159.651 E5.16813
G1 X147.876 Y159.768 E5.17364
G1 X147.367 Y160.221 E5.1963
G1 X146.809 Y160.61 E5.21892
G1 X146.209 Y160.932 E5.24157
G1 X145.575 Y161.181 E5.26423
G1 X144.916 Y161.354 E5.28689
G1 X144.242 Y161.448 E5.30952
G1 X143.775 Y161.467 E5.32507
G1 X129.009 Y161.467 E5.81619
G1 X128.329 Y161.427 E5.83884
G1 X127.659 Y161.308 E5.86147
G1 X127.007 Y161.111 E5.88413
G1 X126.383 Y160.839 E5.90677
G1 X125.795 Y160.495 E5.92943
G1 X125.251 Y160.085 E5.95208
G1 X124.908 Y159.768 E5.96762
G1 X124.791 Y159.651 E5.97312
G1 X124.338 Y159.142 E5.99578
G1 X123.949 Y158.584 E6.01841
G1 X123.627 Y157.984 E6.04106
G1 X123.378 Y157.35 E6.06371
G1 X123.205 Y156.691 E6.08637
G1 X123.111 Y156.017 E6.10901
G1 X123.092 Y155.55 E6.12455
G1 X123.092 Y96.467 E8.08966
G1 X97.908 Y96.467 E8.92728
G1 X97.908 Y158.55 E10.99217
G1 X97.868 Y159.23 E11.01483
G1 X97.749 Y159.9 E11.03746
G1 X97.552 Y160.552 E11.06012
G1 X97.28 Y161.176 E11.08276
G1 X96.936 Y161.764 E11.10541
G1 X96.526 Y162.308 E11.12807
G1 X96.209 Y162.651 E11.14361
G1 X96.092 Y162.768 E11.14911
G1 X95.583 Y163.221 E11.17177
G1 X95.025 Y163.61 E11.1944
G1 X94.425 Y163.932 E11.21704
G1 X93.791 Y164.181 E11.2397
G1 X93.132 Y164.354 E11.26236
G1 X92.458 Y164.448 E11.28499
G1 X91.991 Y164.467 E11.30054
G1 X76.225 Y164.467 E11.82492
G1 X75.545 Y164.427 E11.84757
G1 X74.875 Y164.308 E11.87021
G1 X74.223 Y164.111 E11.89286
G1 X73.599 Y163.839 E11.9155
G1 X73.011 Y163.495 E11.93816
G1 X72.467 Y163.085 E11.96082
G1 X72.124 Y162.768 E11.97635
G1 X72.007 Y162.651 E11.98185
G1 X71.554 Y162.142 E12.00452
G1 X71.165 Y161.584 E12.02714
G1 X70.843 Y160.984 E12.04979
G1 X70.594 Y160.35 E12.07244
G1 X70.421 Y159.691 E12.09511
G1 X70.327 Y159.017 E12.11774
G1 X70.308 Y158.55 E12.13329
G1 X70.308 Y85.784 E14.55349
G1 X70.348 Y85.104 E14.57615
G1 X70.467 Y84.434 E14.59878
G1 X70.664 Y83.782 E14.62144
G1 X70.936 Y83.158 E14.64408
G1 X71.28 Y82.57 E14.66673
G1 X71.69 Y82.026 E14.68939
G1 X72.007 Y81.683 E14.70492
G1 X72.124 Y81.566 E14.71043
G1 X72.633 Y81.113 E14.73309
M204 S500
G0 F6000 X72.899 Y81.413
M204 S1000
G1 F1200 X73.44 Y81.041 E14.75493
G1 X74.022 Y80.737 E14.77677
G1 X74.637 Y80.506 E14.79862
G1 X75.276 Y80.351 E14.82049
G1 X76.225 Y80.267 E14.85217
G1 X92.008 Y80.267 E15.37712
G1 X92.664 Y80.307 E15.39898
G1 X93.31 Y80.426 E15.42083
G1 X93.937 Y80.623 E15.44268
G1 X94.535 Y80.895 E15.46454
G1 X94.577 Y80.921 E15.46618
G1 X94.671 Y80.865 E15.46982
G1 X95.273 Y80.601 E15.49168
G1 X95.902 Y80.411 E15.51353
G1 X96.549 Y80.3 E15.53537
G1 X97.142 Y80.267 E15.55512
G1 X123.858 Y80.267 E16.4437
G1 X124.514 Y80.307 E16.46556
G1 X125.16 Y80.426 E16.48741
G1 X125.787 Y80.623 E16.50927
G1 X126.385 Y80.895 E16.53112
G1 X126.431 Y80.923 E16.53291
G1 X126.788 Y80.737 E16.5463
G1 X127.403 Y80.506 E16.56815
G1 X128.042 Y80.351 E16.59002
G1 X128.991 Y80.267 E16.6217
G1 X143.775 Y80.267 E17.11342
G1 X144.431 Y80.307 E17.13528
G1 X145.077 Y80.426 E17.15713
G1 X145.704 Y80.623 E17.17899
G1 X146.302 Y80.895 E17.20084
G1 X146.863 Y81.237 E17.22269
G1 X147.593 Y81.849 E17.25437
G1 X147.71 Y81.966 E17.25988
G1 X148.146 Y82.458 E17.28174
G1 X148.518 Y82.999 E17.30358
G1 X148.822 Y83.581 E17.32542
G1 X149.053 Y84.196 E17.34727
G1 X149.208 Y84.835 E17.36914
G1 X149.292 Y85.784 E17.40083
G1 X149.292 Y155.55 E19.72125
G1 X149.252 Y156.206 E19.74311
G1 X149.133 Y156.852 E19.76496
G1 X148.936 Y157.479 E19.78682
G1 X148.664 Y158.077 E19.80867
G1 X148.322 Y158.638 E19.83052
G1 X147.71 Y159.368 E19.8622
G1 X147.593 Y159.485 E19.86771
G1 X147.101 Y159.921 E19.88957
G1 X146.56 Y160.293 E19.91141
G1 X145.978 Y160.597 E19.93325
G1 X145.363 Y160.828 E19.9551
G1 X144.724 Y160.983 E19.97697
G1 X143.775 Y161.067 E20.00866
G1 X129.009 Y161.067 E20.49978
G1 X128.353 Y161.027 E20.52163
G1 X127.707 Y160.908 E20.54348
G1 X127.08 Y160.711 E20.56534
G1 X126.482 Y160.439 E20.58719
G1 X125.921 Y160.097 E20.60904
G1 X125.191 Y159.485 E20.64073
G1 X125.074 Y159.368 E20.64623
G1 X124.638 Y158.876 E20.6681
G1 X124.266 Y158.335 E20.68993
G1 X123.962 Y157.753 E20.71177
G1 X123.731 Y157.138 E20.73362
G1 X123.576 Y156.499 E20.75549
G1 X123.492 Y155.55 E20.78718
G1 X123.492 Y96.067 E22.76559
G1 X97.508 Y96.067 E23.62982
G1 X97.508 Y158.55 E25.70802
G1 X97.468 Y159.206 E25.72988
G1 X97.349 Y159.852 E25.75172
G1 X97.152 Y160.479 E25.77358
G1 X96.88 Y161.077 E25.79543
G1 X96.538 Y161.638 E25.81729
G1 X95.926 Y162.368 E25.84897
G1 X95.809 Y162.485 E25.85447
G1 X95.317 Y162.921 E25.87634
G1 X94.776 Y163.293 E25.89817
G1 X94.194 Y163.597 E25.92001
G1 X93.579 Y163.828 E25.94186
G1 X92.94 Y163.983 E25.96373
G1 X91.991 Y164.067 E25.99542
G1 X76.225 Y164.067 E26.5198
G1 X75.569 Y164.027 E26.54166
G1 X74.923 Y163.908 E26.56351
G1 X74.296 Y163.711 E26.58537
G1 X73.698 Y163.439 E26.60722
G1 X73.137 Y163.097 E26.62907
G1 X72.407 Y162.485 E26.66075
G1 X72.29 Y162.368 E26.66626
G1 X71.854 Y161.876 E26.68812
G1 X71.482 Y161.335 E26.70996
G1 X71.178 Y160.753 E26.7318
G1 X70.947 Y160.138 E26.75365
G1 X70.792 Y159.499 E26.77552
G1 X70.708 Y158.55 E26.8072
G1 X70.708 Y85.784 E29.22741
G1 X70.748 Y85.128 E29.24927
G1 X70.867 Y84.482 E29.27112
G1 X71.064 Y83.855 E29.29298
G1 X71.336 Y83.257 E29.31483
G1 X71.678 Y82.696 E29.33668
G1 X72.29 Y81.966 E29.36836
G1 X72.407 Y81.849 E29.37387
G1 X72.899 Y81.413 E29.39573
M204 S500
G0 F6000 X73.164 Y81.714
M204 S1000
G1 F1200 X73.687 Y81.359 E29.41676
G1 X74.251 Y81.073 E29.43779
G1 X74.846 Y80.861 E29.4588
G1 X75.464 Y80.725 E29.47984
G1 X76.225 Y80.667 E29.50523
G1 X92.008 Y80.667 E30.03017
G1 X92.639 Y80.707 E30.0512
G1 X93.26 Y80.826 E30.07223
G1 X93.86 Y81.023 E30.09324
G1 X94.432 Y81.294 E30.11429
G1 X94.572 Y81.384 E30.11982
G1 X95.048 Y81.127 E30.13782
G1 X95.637 Y80.899 E30.15882
G1 X96.251 Y80.747 E30.17986
G1 X97.142 Y80.667 E30.20961
G1 X123.858 Y80.667 E31.09819
G1 X124.489 Y80.707 E31.11922
G1 X125.11 Y80.826 E31.14025
G1 X125.71 Y81.023 E31.16126
G1 X126.282 Y81.294 E31.18231
G1 X126.419 Y81.382 E31.18772
G1 X126.453 Y81.359 E31.18909
G1 X127.017 Y81.073 E31.21012
G1 X127.612 Y80.861 E31.23113
G1 X128.23 Y80.725 E31.25218
G1 X128.991 Y80.667 E31.27756
G1 X143.775 Y80.667 E31.76928
G1 X144.406 Y80.707 E31.79031
G1 X145.027 Y80.826 E31.81134
G1 X145.627 Y81.023 E31.83234
G1 X146.199 Y81.294 E31.8534
G1 X146.731 Y81.634 E31.87439
G1 X147.311 Y82.131 E31.8998
G1 X147.428 Y82.248 E31.9053
G1 X147.845 Y82.723 E31.92633
G1 X148.2 Y83.246 E31.94735
G1 X148.486 Y83.81 E31.96838
G1 X148.698 Y84.405 E31.98939
G1 X148.834 Y85.023 E32.01044
G1 X148.892 Y85.784 E32.03582
G1 X148.892 Y155.55 E34.35625
G1 X148.852 Y156.181 E34.37728
G1 X148.733 Y156.802 E34.39831
G1 X148.536 Y157.402 E34.41931
G1 X148.265 Y157.974 E34.44036
G1 X147.925 Y158.506 E34.46136
G1 X147.428 Y159.086 E34.48677
G1 X147.311 Y159.203 E34.49227
G1 X146.836 Y159.62 E34.51329
G1 X146.313 Y159.975 E34.53432
G1 X145.749 Y160.261 E34.55535
G1 X145.154 Y160.473 E34.57636
G1 X144.536 Y160.609 E34.5974
G1 X143.775 Y160.667 E34.62279
G1 X129.009 Y160.667 E35.11391
G1 X128.378 Y160.627 E35.13494
G1 X127.757 Y160.508 E35.15597
G1 X127.157 Y160.311 E35.17697
G1 X126.585 Y160.04 E35.19802
G1 X126.053 Y159.7 E35.21902
G1 X125.473 Y159.203 E35.24443
G1 X125.356 Y159.086 E35.24993
G1 X124.939 Y158.611 E35.27095
G1 X124.584 Y158.088 E35.29198
G1 X124.298 Y157.524 E35.31301
G1 X124.086 Y156.929 E35.33402
G1 X123.95 Y156.311 E35.35507
G1 X123.892 Y155.55 E35.38045
G1 X123.892 Y95.664 E37.37227
G1 X123.858 Y95.667 E37.3734
G1 X97.142 Y95.667 E38.26198
G1 X97.108 Y95.665 E38.26311
G1 X97.108 Y158.55 E40.35468
G1 X97.068 Y159.181 E40.37571
G1 X96.949 Y159.802 E40.39674
G1 X96.752 Y160.402 E40.41774
G1 X96.481 Y160.974 E40.43879
G1 X96.141 Y161.506 E40.45979
G1 X95.644 Y162.086 E40.4852
G1 X95.527 Y162.203 E40.4907
G1 X95.052 Y162.62 E40.51172
G1 X94.529 Y162.975 E40.53275
G1 X93.965 Y163.261 E40.55378
G1 X93.37 Y163.473 E40.57479
G1 X92.752 Y163.609 E40.59583
G1 X91.991 Y163.667 E40.62122
G1 X76.225 Y163.667 E41.1456
G1 X75.594 Y163.627 E41.16663
G1 X74.973 Y163.508 E41.18766
G1 X74.373 Y163.311 E41.20866
G1 X73.801 Y163.04 E41.22971
G1 X73.269 Y162.7 E41.25071
G1 X72.689 Y162.203 E41.27612
G1 X72.572 Y162.086 E41.28162
G1 X72.155 Y161.611 E41.30264
G1 X71.8 Y161.088 E41.32367
G1 X71.514 Y160.524 E41.3447
G1 X71.302 Y159.929 E41.36571
G1 X71.166 Y159.311 E41.38675
G1 X71.108 Y158.55 E41.41214
G1 X71.108 Y85.784 E43.83235
G1 X71.148 Y85.153 E43.85337
G1 X71.267 Y84.532 E43.87441
G1 X71.464 Y83.932 E43.89541
G1 X71.735 Y83.36 E43.91646
G1 X72.075 Y82.828 E43.93746
G1 X72.572 Y82.248 E43.96287
G1 X72.689 Y82.131 E43.96837
G1 X73.164 Y81.714 E43.98939
M204 S500
G0 F6000 X73.428 Y82.015
M204 S1000
G1 F1200 X73.933 Y81.679 E44.00957
G1 X74.477 Y81.412 E44.02972
G1 X75.052 Y81.219 E44.04989
G1 X75.647 Y81.103 E44.07006
G1 X76.225 Y81.067 E44.08932
G1 X92.008 Y81.067 E44.61426
G1 X92.613 Y81.107 E44.63443
G1 X93.207 Y81.226 E44.65458
G1 X93.781 Y81.422 E44.67475
G1 X94.324 Y81.693 E44.69494
G1 X94.574 Y81.862 E44.70497
G1 X94.874 Y81.665 E44.71691
G1 X95.42 Y81.401 E44.73708
G1 X95.996 Y81.212 E44.75724
G1 X96.592 Y81.1 E44.77741
G1 X97.142 Y81.067 E44.79574
G1 X123.858 Y81.067 E45.68432
G1 X124.463 Y81.107 E45.70448
G1 X125.057 Y81.226 E45.72463
G1 X125.631 Y81.422 E45.74481
G1 X126.174 Y81.693 E45.76499
G1 X126.424 Y81.862 E45.77503
G1 X126.699 Y81.679 E45.78602
G1 X127.243 Y81.412 E45.80617
G1 X127.818 Y81.219 E45.82634
G1 X128.413 Y81.103 E45.84651
G1 X128.991 Y81.067 E45.86577
G1 X143.775 Y81.067 E46.35749
G1 X144.38 Y81.107 E46.37765
G1 X144.974 Y81.226 E46.3978
G1 X145.548 Y81.422 E46.41797
G1 X146.091 Y81.693 E46.43816
G1 X146.594 Y82.032 E46.45833
G1 X147.028 Y82.414 E46.47756
G1 X147.145 Y82.531 E46.48307
G1 X147.544 Y82.987 E46.50322
G1 X147.88 Y83.492 E46.52339
G1 X148.147 Y84.036 E46.54355
G1 X148.34 Y84.611 E46.56372
G1 X148.456 Y85.206 E46.58389
G1 X148.492 Y85.784 E46.60315
G1 X148.492 Y155.55 E48.92357
G1 X148.452 Y156.155 E48.94374
G1 X148.333 Y156.749 E48.96389
G1 X148.137 Y157.323 E48.98406
G1 X147.866 Y157.866 E49.00425
G1 X147.527 Y158.369 E49.02442
G1 X147.145 Y158.803 E49.04365
G1 X147.028 Y158.92 E49.04916
G1 X146.572 Y159.319 E49.06931
G1 X146.067 Y159.655 E49.08948
G1 X145.523 Y159.922 E49.10964
G1 X144.948 Y160.115 E49.12981
G1 X144.353 Y160.231 E49.14997
G1 X143.775 Y160.267 E49.16923
G1 X129.009 Y160.267 E49.66035
G1 X128.404 Y160.227 E49.68052
G1 X127.81 Y160.108 E49.70067
G1 X127.236 Y159.912 E49.72084
G1 X126.693 Y159.641 E49.74103
G1 X126.19 Y159.302 E49.7612
G1 X125.756 Y158.92 E49.78043
G1 X125.639 Y158.803 E49.78594
G1 X125.24 Y158.347 E49.80609
G1 X124.904 Y157.842 E49.82626
G1 X124.637 Y157.298 E49.84642
G1 X124.444 Y156.723 E49.86659
G1 X124.328 Y156.128 E49.88675
G1 X124.292 Y155.55 E49.90602
G1 X124.292 Y95.241 E51.9119
G1 X123.858 Y95.267 E51.92636
G1 X97.142 Y95.267 E52.81494
G1 X96.708 Y95.238 E52.82941
G1 X96.708 Y158.55 E54.93517
G1 X96.668 Y159.155 E54.95534
G1 X96.549 Y159.749 E54.97549
G1 X96.353 Y160.323 E54.99566
G1 X96.082 Y160.866 E55.01585
G1 X95.743 Y161.369 E55.03602
G1 X95.361 Y161.803 E55.05525
G1 X95.244 Y161.92 E55.06075
G1 X94.788 Y162.319 E55.08091
G1 X94.283 Y162.655 E55.10108
G1 X93.739 Y162.922 E55.12124
G1 X93.164 Y163.115 E55.14141
G1 X92.569 Y163.231 E55.16157
G1 X91.991 Y163.267 E55.18083
G1 X76.225 Y163.267 E55.70521
G1 X75.62 Y163.227 E55.72538
G1 X75.026 Y163.108 E55.74553
G1 X74.452 Y162.912 E55.7657
G1 X73.909 Y162.641 E55.78589
G1 X73.406 Y162.302 E55.80606
G1 X72.972 Y161.92 E55.82529
G1 X72.855 Y161.803 E55.83079
G1 X72.456 Y161.347 E55.85095
G1 X72.12 Y160.842 E55.87112
G1 X71.853 Y160.298 E55.89128
G1 X71.66 Y159.723 E55.91145
G1 X71.544 Y159.128 E55.93161
G1 X71.508 Y158.55 E55.95087
G1 X71.508 Y85.784 E58.37108
G1 X71.548 Y85.179 E58.39125
G1 X71.667 Y84.585 E58.4114
G1 X71.863 Y84.011 E58.43157
G1 X72.134 Y83.468 E58.45175
G1 X72.473 Y82.965 E58.47193
G1 X72.855 Y82.531 E58.49116
G1 X72.972 Y82.414 E58.49666
G1 X73.428 Y82.015 E58.51682
M204 S500
G0 F6000 X73.692 Y82.317
M204 S1000
G1 F1200 X74.177 Y82 E58.53609
G1 X74.701 Y81.753 E58.55535
G1 X75.254 Y81.581 E58.57462
G1 X75.826 Y81.486 E58.5939
G1 X76.225 Y81.467 E58.60719
G1 X92.008 Y81.467 E59.13213
G1 X92.586 Y81.507 E59.1514
G1 X93.153 Y81.626 E59.17067
G1 X93.698 Y81.822 E59.18994
G1 X94.211 Y82.091 E59.2092
G1 X94.577 Y82.353 E59.22417
G1 X94.755 Y82.211 E59.23175
G1 X95.253 Y81.916 E59.251
G1 X95.787 Y81.691 E59.27027
G1 X96.347 Y81.543 E59.28954
G1 X97.142 Y81.467 E59.3161
G1 X123.858 Y81.467 E60.20468
G1 X124.436 Y81.507 E60.22395
G1 X125.003 Y81.626 E60.24322
G1 X125.548 Y81.822 E60.26248
G1 X126.061 Y82.091 E60.28174
G1 X126.421 Y82.349 E60.29648
G1 X126.458 Y82.317 E60.2981
G1 X126.943 Y82 E60.31737
G1 X127.467 Y81.753 E60.33664
G1 X128.02 Y81.581 E60.3559
G1 X128.592 Y81.486 E60.37519
G1 X128.991 Y81.467 E60.38847
G1 X143.775 Y81.467 E60.88019
G1 X144.353 Y81.507 E60.89946
G1 X144.92 Y81.626 E60.91873
G1 X145.465 Y81.822 E60.938
G1 X145.978 Y82.091 E60.95726
G1 X146.449 Y82.428 E60.97652
G1 X146.745 Y82.697 E60.98983
G1 X146.862 Y82.814 E60.99533
G1 X147.242 Y83.251 E61.01459
G1 X147.559 Y83.736 E61.03386
G1 X147.806 Y84.26 E61.05313
G1 X147.978 Y84.813 E61.07239
G1 X148.073 Y85.385 E61.09168
G1 X148.092 Y85.784 E61.10496
G1 X148.092 Y155.55 E63.42539
G1 X148.052 Y156.128 E63.44466
G1 X147.933 Y156.695 E63.46393
G1 X147.737 Y157.24 E63.48319
G1 X147.468 Y157.753 E63.50246
G1 X147.131 Y158.224 E63.52172
G1 X146.862 Y158.52 E63.53502
G1 X146.745 Y158.637 E63.54053
G1 X146.308 Y159.017 E63.55979
G1 X145.823 Y159.334 E63.57906
G1 X145.299 Y159.581 E63.59833
G1 X144.746 Y159.753 E63.61759
G1 X144.174 Y159.848 E63.63688
G1 X143.775 Y159.867 E63.65016
G1 X129.009 Y159.867 E64.14128
G1 X128.431 Y159.827 E64.16055
G1 X127.864 Y159.708 E64.17982
G1 X127.319 Y159.512 E64.19908
